X: 5
T: The Man Of The House
R: reel
M: 4/4
L: 1/8
K: Dmaj
| E2 BE GA B2 | E2 BG AGFD | E2 BE GABc | dBAd BAGF || (3EEE BE GA (3BBB | E2 BG AGFD | E2 BE GABc | dBAd BAGF || efge fgaf | gfed edBA | efge fgaf | gfed Be e2 || ef (3gfe fgaf | gfed efga | bgaf gfed | edBA GEED |


Tune 222	Setting 27947

